X:1
T:Title
%%score { ( 1 4 5 ) | ( 2 3 ) }
L:1/8
M:9/8
K:Db
V:1 treble nm="Grand Piano"
V:4 treble 
V:5 treble 
V:2 bass 
V:3 bass 
V:1
 z3 z3[Q:1/4=119] [FA]3 | [FA]3- [FA]2 [FA] [GB]2 [EGA] | [DFA]3 [Fd]3 [DF]3 | %3
 [FA]3- [FA]2 [FA] [EG]2 [EG] |[M:3/4] [A,DF]6 |[M:3/8] [DFA]3 | %6
[M:9/8] [DGB]3- [DGB]2 [DGB] [DGB]2 [DGd] | [GB]3 [FA]3 [FB]3 | c3- c2 d c2 B |[M:3/4] [CA]6 | %10
[M:3/8] A3 |[M:9/8] e3- e2 d c2 c | [Fd]3 [FA]3 [FA]3 | [DGB]3- [DGB]2 [DGB] .[D=GB]2 [EGd] | %14
[M:3/4] [EGc]6 |[M:3/8] B2 z |[M:9/8] [Fd]3- [Fd]2 A c2 B | [FA]3 [Fd]3 [DF]3 | %18
 [FA]3- [FA]2 [EG] [DF]2 [CE] |[M:3/4] D6 |[M:12/8] z3 [Gc]6- [Gc]2 z |[M:9/8] z3 [FA]3 [FA]3- | %22
[M:3/8] [FA]3 | [DFA]3 |[M:6/4] .[GB]12 |[M:9/8] [Gc]8- [Gc] | B2 c [Fd]3- [Fd]2 A | %27
 c2 B [FA]3 [Fd]3 | [DF]3 [FA]3- [FA]2 [EG] |[M:3/4] [DF]2 [CE] D3- | D4 z2 |] %31
V:2
 z3 z3 [D,D]3 | [D,D]3- [D,D]2 [D,D] [D,D]2 C, | D,3 [D,A,]3 [D,A,]3 | %3
 [A,,A,]3- [A,,A,]2 [A,,A,] [A,,A,]2 [A,,A,] |[M:3/4] D,6 |[M:3/8] D,3 | %6
[M:9/8] G,3- G,2 G, G,,2 B,, | [D,D]3 [D,D]3 [D,A,]3 | %8
 [E,A,E]3- [E,A,E]2 [E,B,E] [E,A,E]2 [E,=G,D] |[M:3/4] [A,,A,]6 |[M:3/8][K:treble] [A,C]3 | %11
[M:9/8] [A,CG]3- [A,CG]2 [A,DG] [A,EG]2 [A,G] | [D,A,]3 [D,D]3 [D,D]3 | %13
 G,3- G,2 G, z[K:treble] c[K:bass]E, |[M:3/4] A,6 |[M:3/8] z z[K:treble] c | %16
[M:9/8][K:bass] [D,A,]3- [D,A,]2 [F,D] [G,DG]2 [G,DG] | [D,D]3 [D,A,]3 [D,A,]3 | %18
 [A,,A,]3- [A,,A,]2 [A,,A,] [A,,A,]2 [A,,G,] |[M:3/4] [D,F,]6 |[M:12/8] z6 z3 A,3[K:treble] | %21
[M:9/8] [A,EG]2[K:bass] [A,,CG] [D,D]2 D, F,2 A, |[M:3/8] D,3 | D,3 | %24
[M:6/4] G,2 G, G,2 G, z2[K:treble] .G2 c=G |[M:9/8] A,2 A, A,2 A, A,3 | %26
 [A,G]3[K:bass] [D,A,]3- [D,A,]2 [F,D] | [G,DG]2 [G,DG] [D,D]3 [D,A,]3 | %28
 [D,A,]3 [A,,A,]3- [A,,A,]2 [A,,A,] |[M:3/4] [A,,A,]2 [A,,G,] [D,F,]3- | [D,F,]4 z2 |] %31
V:3
 x9 | x9 | x9 | x9 |[M:3/4] x6 |[M:3/8] x3 |[M:9/8] x9 | x9 | x9 |[M:3/4] x6 | %10
[M:3/8][K:treble] x3 |[M:9/8] x9 | x9 | z3 z3 .E,3[K:treble][K:bass] |[M:3/4] x6 | %15
[M:3/8] A,3[K:treble] |[M:9/8][K:bass] x9 | x9 | x9 |[M:3/4] x6 | %20
[M:12/8] [D,A,]3 A,2 A,, C,2 E, z2[K:treble] G |[M:9/8] x2[K:bass] x7 |[M:3/8] x3 | x3 | %24
[M:6/4] z6 G,3[K:treble] E,3 |[M:9/8] x9 | x3[K:bass] x6 | x9 | x9 |[M:3/4] x6 | x6 |] %31
V:4
 x9 | x9 | x9 | x9 |[M:3/4] x6 |[M:3/8] x3 |[M:9/8] x9 | x9 | x9 |[M:3/4] x6 |[M:3/8] x3 | %11
[M:9/8] x9 | x9 | x9 |[M:3/4] x6 |[M:3/8] G3 |[M:9/8] x9 | x9 | x9 |[M:3/4] x6 | %20
[M:12/8] [Fd]3 z2 A, A,2 A, z2 c |[M:9/8] cde z2 D D2 D |[M:3/8] D3 | x3 | %24
[M:6/4] D2 D D2 D z2 B .[=GB]2 d |[M:9/8] E2 E E2 E E3 | x9 | x9 | x9 |[M:3/4] x6 | x6 |] %31
V:5
 x9 | x9 | x9 | x9 |[M:3/4] x6 |[M:3/8] x3 |[M:9/8] x9 | x9 | x9 |[M:3/4] x6 |[M:3/8] x3 | %11
[M:9/8] x9 | x9 | x9 |[M:3/4] x6 |[M:3/8] x3 |[M:9/8] x9 | x9 | x9 |[M:3/4] x6 |[M:12/8] z6 z3 E3 | %21
[M:9/8] x9 |[M:3/8] x3 | x3 |[M:6/4] z6 D3 E3 |[M:9/8] x9 | x9 | x9 | x9 |[M:3/4] x6 | x6 |] %31

